public/img/general/logos/kia_logo_black.svg

<svg width="67" height="33" viewBox="0 0 67 33" fill="none" xmlns="http://www.w3.org/2000/svg">
<path d="M31.652 32.9761C29.4302 32.9186 26.98 32.7265 24.8111 32.4399C15.577 31.2199 7.83938 28.1104 3.53162 23.8886C1.70524 22.0981 0.547394 20.1312 0.157142 18.154C0.0299716 17.51 0 17.1948 0 16.5001C0 15.8055 0.0301797 15.4899 0.157142 14.8461C0.413563 13.5465 1.0234 12.2065 1.92254 10.9646C3.95622 8.15577 7.52468 5.65539 12.2069 3.75818C20.0105 0.595959 30.2286 -0.656584 40.1787 0.329221C51.8594 1.48651 61.4683 5.67235 65.2809 11.2646C67.0243 13.821 67.4512 16.5978 66.5181 19.3115C65.9796 20.8786 64.9333 22.4447 63.4604 23.8888C59.3793 27.8888 52.1964 30.9055 43.5746 32.2398C39.7189 32.8367 35.7438 33.0819 31.652 32.9761ZM36.7463 30.8655C41.4217 30.5809 45.3698 29.9064 49.2167 28.7334C52.2694 27.803 55.115 26.5149 57.2992 25.0751C58.4 24.3489 59.1637 23.7365 60.0274 22.8862C61.0531 21.8769 61.7148 20.9913 62.2538 19.9069C62.8566 18.6936 63.0901 17.7432 63.0901 16.5001C63.0901 15.25 62.8416 14.2482 62.2309 13.0394C61.7029 11.9941 61.0296 11.0997 60.0274 10.1137C58.5563 8.66574 56.8082 7.47145 54.4983 6.33582C50.1743 4.2101 44.7637 2.81918 38.7365 2.28407C35.398 1.98769 31.6054 1.98749 28.2561 2.28366C19.7821 3.03298 12.5083 5.50311 8.00735 9.15997C7.43643 9.62395 6.41887 10.6329 5.99219 11.1579C4.46698 13.0355 3.74704 15.0617 3.91085 17.0139C4.08963 19.1405 5.06474 21.0164 6.9648 22.8862C8.40405 24.3033 10.1153 25.4806 12.3405 26.5858C17.4084 29.1021 23.6349 30.5441 30.9581 30.8978C31.7852 30.9378 35.94 30.9145 36.7463 30.8655ZM12.9917 24.8403C12.9518 24.8239 12.8858 24.7748 12.8456 24.7309C12.7732 24.6518 12.7726 24.594 12.7632 16.9734L12.7539 9.29569L12.6573 9.19635C12.5659 9.10274 12.5403 9.09661 12.1919 9.08721L11.8233 9.07699V8.59277V8.10856L14.477 8.09936L17.1305 8.09016L17.2431 8.18336L17.3559 8.27657V11.0445C17.3559 14.0859 17.3474 13.9719 17.5701 13.9719C17.7083 13.9719 17.7564 13.9153 18.5263 12.8424C20.5656 9.99984 21.6872 8.45378 21.7883 8.34647C22.0375 8.08178 21.9243 8.09261 24.5057 8.09159L26.8169 8.09077L26.9051 8.17744C27.0136 8.28372 27.0541 8.42884 27.0048 8.53268C26.9738 8.5987 25.9735 10.0571 22.4816 15.129C22.1003 15.6827 21.9938 15.8632 21.9944 15.9537C21.9958 16.0477 22.2435 16.4132 23.3025 17.8808C27.9816 24.3661 27.997 24.3873 28.0109 24.5185C28.022 24.6168 28.0037 24.6716 27.9337 24.752L27.8426 24.8562L25.4284 24.866C23.0484 24.8756 23.0124 24.8746 22.8371 24.8008C22.7391 24.7597 22.6184 24.6827 22.5686 24.6297C22.5189 24.5768 21.4187 23.0735 20.1235 21.288C18.828 19.5028 17.7426 18.0212 17.7104 17.9952C17.6202 17.922 17.4556 17.9568 17.4025 18.0604C17.3667 18.1305 17.3565 18.8612 17.3561 21.4025L17.3555 24.6549L17.267 24.7554L17.179 24.856L15.1218 24.8629C13.9906 24.8668 13.0319 24.8566 12.9917 24.8403ZM31.3224 24.8241C31.2616 24.7979 31.1919 24.7332 31.1671 24.68C31.1321 24.605 31.1223 22.8987 31.1223 16.944V9.30448L31.0156 9.19983C30.9125 9.09845 30.8971 9.09497 30.5591 9.09497H30.2095V8.59277V8.09077H32.9108H35.6124L35.7315 8.19543L35.8507 8.29987V16.4786V24.6573L35.7496 24.7565L35.6486 24.8558L33.5406 24.864C31.8525 24.8703 31.411 24.8619 31.3224 24.8241ZM39.1744 24.8304C39.0612 24.7665 39.0129 24.6868 39.0117 24.5619C39.011 24.4985 39.5291 22.9253 40.1635 21.0657C40.7979 19.2057 41.8067 16.2478 42.4053 14.4925C43.0039 12.7371 43.6352 10.8906 43.8083 10.3894C43.9813 9.88783 44.123 9.43386 44.123 9.38011C44.123 9.32635 44.0918 9.24418 44.0533 9.19779C43.9909 9.12195 43.9461 9.11133 43.6241 9.09518L43.2643 9.0774L43.2543 8.58419L43.2441 8.09118L46.4858 8.09159C48.6142 8.09159 49.7747 8.10467 49.864 8.1292C49.9391 8.14964 50.0187 8.19951 50.0409 8.24019C50.0869 8.32399 50.4503 9.37949 52.1637 14.4029C54.9514 22.5753 55.5885 24.4613 55.5885 24.5388C55.5885 24.6649 55.5161 24.7906 55.4187 24.8343C55.3567 24.8621 54.7087 24.874 53.2955 24.874C51.4313 24.874 51.2512 24.8687 51.1363 24.8112C51.0674 24.7765 50.9811 24.7078 50.944 24.6583C50.9068 24.6089 50.6237 23.7939 50.3146 22.8476C47.3668 13.8255 47.4484 14.0716 47.382 13.9991C47.3085 13.9189 47.2532 13.9198 47.1776 14.0019C47.1175 14.0671 47.0036 14.4103 45.4012 19.3692C44.9362 20.8087 44.4342 22.3581 44.2868 22.812C44.1391 23.2656 43.9497 23.8506 43.866 24.1118C43.7011 24.6256 43.6283 24.7481 43.4429 24.8241C43.2815 24.8903 39.2906 24.8959 39.1744 24.8304Z" fill="black"/>
</svg>

<svg width="67" height="33" fill="none" xmlns="http://www.w3.org/2000/svg"><path d="M31.652 32.976a67.539 67.539 0 01-6.84-.536c-9.235-1.22-16.973-4.33-21.28-8.551C1.705 22.099.547 20.13.157 18.154.03 17.51 0 17.194 0 16.5s.03-1.01.157-1.654c.257-1.3.866-2.64 1.766-3.881 2.033-2.81 5.602-5.31 10.284-7.207C20.01.596 30.229-.657 40.179.33c11.68 1.158 21.29 5.343 25.102 10.936 1.743 2.556 2.17 5.333 1.237 8.046-.538 1.568-1.585 3.134-3.058 4.578-4.08 4-11.264 7.017-19.885 8.35-3.856.598-7.831.843-11.923.737zm5.094-2.11c4.676-.285 8.624-.96 12.47-2.133 3.053-.93 5.899-2.218 8.083-3.658 1.101-.726 1.865-1.338 2.728-2.189 1.026-1.01 1.688-1.895 2.227-2.98.603-1.212.836-2.163.836-3.406 0-1.25-.248-2.252-.86-3.46-.527-1.046-1.2-1.94-2.203-2.926-1.47-1.448-3.219-2.643-5.529-3.778-4.324-2.126-9.734-3.517-15.761-4.052a61.9 61.9 0 00-10.48 0c-8.475.749-15.749 3.22-20.25 6.876-.57.464-1.588 1.473-2.015 1.998-1.525 1.878-2.245 3.904-2.081 5.856.179 2.127 1.154 4.002 3.054 5.872 1.439 1.417 3.15 2.595 5.376 3.7 5.067 2.516 11.294 3.958 18.617 4.312.827.04 4.982.017 5.788-.032zM12.992 24.84a.51.51 0 01-.146-.11c-.073-.078-.073-.136-.083-7.757l-.01-7.677-.096-.1c-.091-.093-.117-.1-.465-.109l-.369-.01v-.968l2.654-.01 2.654-.009.112.093.113.094v2.768c0 3.04-.009 2.927.214 2.927.138 0 .186-.057.956-1.13 2.04-2.842 3.161-4.388 3.262-4.496.25-.264.136-.253 2.718-.254l2.31-.001.09.086c.108.107.148.252.099.356-.031.066-1.031 1.524-4.523 6.596-.382.554-.488.734-.488.825.002.094.25.46 1.308 1.927 4.68 6.485 4.695 6.506 4.709 6.637.011.099-.007.154-.077.234l-.091.104-2.415.01c-2.38.01-2.416.009-2.59-.065a.94.94 0 01-.27-.171 270.96 270.96 0 01-2.445-3.342c-1.295-1.785-2.38-3.267-2.413-3.293-.09-.073-.254-.038-.308.065-.035.07-.046.801-.046 3.343v3.252l-.089.1-.088.101-2.057.007c-1.131.004-2.09-.006-2.13-.023zm18.33-.016a.346.346 0 01-.155-.144c-.035-.075-.045-1.781-.045-7.736v-7.64l-.106-.104c-.103-.102-.119-.105-.457-.105h-.35V8.091h5.403l.12.104.119.105v16.357l-.101.1-.101.099-2.108.008c-1.688.006-2.13-.002-2.219-.04zm7.852.006c-.113-.063-.161-.143-.162-.268-.001-.064.517-1.637 1.151-3.496l2.242-6.573a1869.8 1869.8 0 011.403-4.104c.173-.501.315-.955.315-1.009a.336.336 0 00-.07-.182c-.062-.076-.107-.087-.429-.103l-.36-.018-.01-.493-.01-.493h3.242c2.128 0 3.289.014 3.378.038.075.02.155.07.177.111.046.084.41 1.14 2.123 6.163 2.787 8.172 3.425 10.058 3.425 10.136 0 .126-.073.252-.17.295-.062.028-.71.04-2.123.04-1.865 0-2.045-.005-2.16-.063a.646.646 0 01-.192-.153c-.037-.05-.32-.864-.63-1.81-2.947-9.022-2.866-8.776-2.932-8.849-.073-.08-.129-.08-.204.003-.06.065-.174.408-1.777 5.367a3062.93 3062.93 0 01-1.535 4.743c-.165.514-.238.636-.423.712-.161.066-4.152.072-4.269.006z" fill="#000"/></svg>
